assets/icons/qvision/carpenter.svg

<svg width="24" height="24" viewBox="0 0 24 24" fill="none" xmlns="http://www.w3.org/2000/svg">
<g clip-path="url(#clip0_147_6125)">
<path d="M19.7299 14.23L6.99986 1.5L3.10986 5.39L11.2399 17.06C10.4599 17.84 10.4599 19.11 11.2399 19.89L12.6499 21.3C13.4299 22.08 14.6999 22.08 15.4799 21.3L19.7199 17.06C20.5099 16.28 20.5099 15.01 19.7299 14.23ZM14.0699 19.88L12.6599 18.47L16.8999 14.23L18.3099 15.64L14.0699 19.88Z" fill="#323232"/>
</g>
<defs>
<clipPath id="clip0_147_6125">
<rect width="24" height="24" fill="white"/>
</clipPath>
</defs>
</svg>

<svg xmlns="http://www.w3.org/2000/svg" enable-background="new 0 0 24 24" height="24" viewBox="0 0 24 24" width="24"><rect fill="none" height="24" width="24"/><path d="M19.73,14.23L7,1.5L3.11,5.39l8.13,11.67c-0.78,0.78-0.78,2.05,0,2.83l1.41,1.41c0.78,0.78,2.05,0.78,2.83,0l4.24-4.24 C20.51,16.28,20.51,15.01,19.73,14.23z M14.07,19.88l-1.41-1.41l4.24-4.24l1.41,1.41L14.07,19.88z"/></svg>
